X:14
T: IN LAUTERBACH HAB ICH MEIN STRUEMPFEL VERLOREN
N: E1010
O: Europa, Mitteleuropa, Deutschland, Oberrhein; Frankreich, Elsass
R: Tanz - Lied
M: 3/8
L: 1/16
K: G
D2 | d3dd2 | B2A2G2 | A4F2 | D2D2
D2 | e3ed2 | c2B2A2 | d6- | d4
D2 | d3dd2 | B2A2G2 | A4F2 | D2D2
D2 | e3ed2 | c2B2A2 | G6- | G2z2

